src/assets/bg/stamp-right-top.svg

<?xml version="1.0" encoding="UTF-8"?>
<svg width="712px" height="613px" viewBox="0 0 712 613" version="1.1" xmlns="http://www.w3.org/2000/svg" xmlns:xlink="http://www.w3.org/1999/xlink">
    <!-- Generator: Sketch 58 (84663) - https://sketch.com -->
    <title>Group 5</title>
    <desc>Created with Sketch.</desc>
    <defs>
        <linearGradient x1="21.1726786%" y1="11.4981796%" x2="49.351127%" y2="90.2298151%" id="linearGradient-1">
            <stop stop-color="#14C39A" offset="0%"></stop>
            <stop stop-color="#3BD2FA" offset="25.3773131%"></stop>
            <stop stop-color="#F785C4" offset="49.8235295%"></stop>
            <stop stop-color="#34D2FB" offset="76.8449113%"></stop>
            <stop stop-color="#14C39A" offset="100%"></stop>
        </linearGradient>
        <linearGradient x1="21.1726786%" y1="11.8463415%" x2="49.351127%" y2="89.8660274%" id="linearGradient-2">
            <stop stop-color="#14C39A" offset="0%"></stop>
            <stop stop-color="#3BD2FA" offset="25.3773131%"></stop>
            <stop stop-color="#F785C4" offset="49.8235295%"></stop>
            <stop stop-color="#34D2FB" offset="76.8449113%"></stop>
            <stop stop-color="#14C39A" offset="100%"></stop>
        </linearGradient>
        <linearGradient x1="21.1726786%" y1="11.5938513%" x2="49.351127%" y2="90.1298495%" id="linearGradient-3">
            <stop stop-color="#14C39A" offset="0%"></stop>
            <stop stop-color="#3BD2FA" offset="25.3773131%"></stop>
            <stop stop-color="#F785C4" offset="49.8235295%"></stop>
            <stop stop-color="#34D2FB" offset="76.8449113%"></stop>
            <stop stop-color="#14C39A" offset="100%"></stop>
        </linearGradient>
    </defs>
    <g id="Page-1" stroke="none" stroke-width="1" fill="none" fill-rule="evenodd" opacity="0.699999988">
        <g id="Proofi---landingpage" transform="translate(-728.000000, 0.000000)">
            <g id="hero">
                <g id="Group-5" transform="translate(721.000000, -697.000000)">
                    <path d="M1299.51883,528.769401 C1281.44398,506.512374 1264.41534,485.484399 1258.18264,466.244138 C1251.48248,445.48432 1252.88484,417.439572 1254.3985,387.785882 C1256.6022,342.936631 1259.18433,292.120888 1231.0036,253.126397 C1202.5335,213.819057 1153.20609,200.545287 1109.68846,188.835767 C1081.35192,181.21564 1054.57355,173.930709 1037.43361,161.483757 C1020.62757,149.170884 1005.7136,126.042346 989.931504,101.550678 C965.312322,63.3830042 937.46549,20.0980022 890.853767,4.88009497 C850.229891,-8.19255663 801.169605,7.31585399 757.585195,24.1203566 C729.471247,34.9360205 702.959995,45.081292 680.455481,45.081292 C657.973226,45.081292 631.461974,34.9360205 603.348026,24.1203566 C559.696837,7.38289323 510.636551,-8.19255663 470.079454,4.88009497 C423.467731,20.0980022 395.53186,63.315965 370.934938,101.550678 C355.19736,125.975307 340.283389,149.103844 323.477348,161.416718 C306.270632,173.997749 279.514524,181.21564 251.177979,188.835767 C207.727127,200.545287 158.444245,213.886096 129.929623,253.215783 C101.726636,292.053848 104.308757,342.936631 106.534722,387.785882 C108.115158,417.528957 109.450738,445.551359 102.81736,466.244138 C96.5846554,485.41736 79.5560171,506.512374 61.481175,528.769401 C32.6771777,564.277852 0,604.568434 0,654.713785 C0,704.792097 32.5881391,745.060333 61.414396,780.635822 C79.4892382,802.89285 96.5178764,823.920824 102.728321,843.183432 C109.450738,863.920904 108.048379,891.965652 106.534722,921.619342 C104.308757,966.468593 101.726636,1017.28434 129.929623,1056.27883 C158.377466,1095.60851 207.727127,1108.85994 251.244758,1120.56946 C279.581303,1128.18958 306.337411,1135.47451 323.477348,1147.92147 C340.283389,1160.23434 355.19736,1183.36288 371.001717,1207.87689 C395.620899,1246.04457 423.467731,1289.30722 470.079454,1304.54748 C510.547512,1317.55309 559.696837,1301.95529 603.348026,1285.28487 C631.461974,1274.53624 657.973226,1264.34628 680.455481,1264.34628 C702.959995,1264.34628 729.471247,1274.49155 757.585195,1285.28487 C789.238429,1297.48601 822.049164,1310 855.193795,1310 C867.725982,1310 879.723938,1308.16759 890.764728,1304.54748 C937.398711,1289.30722 965.312322,1246.11161 989.931504,1207.87689 C1005.64682,1183.45226 1020.56079,1160.32373 1037.43361,1147.98851 C1054.57355,1135.40748 1081.35192,1128.18958 1109.75524,1120.56946 C1153.20609,1108.85994 1202.46672,1095.60851 1231.0036,1056.27883 C1259.18433,1017.44076 1256.6022,966.535632 1254.3985,921.619342 C1252.88484,891.898613 1251.48248,863.853864 1258.18264,843.183432 C1264.41534,823.987864 1281.44398,802.89285 1299.51883,780.635822 C1328.32282,745.194411 1361,704.926175 1361,654.713785 C1360.93322,604.635474 1328.32282,564.344891 1299.51883,528.769401" id="Path" fill="url(#linearGradient-1)" opacity="0.1"></path>
                    <path d="M1247.8493,539.73615 C1231.34157,519.500945 1215.78933,500.383145 1210.097,482.890663 C1203.97776,464.016661 1205.25853,438.519489 1206.64095,411.559531 C1208.65359,370.784372 1211.01184,324.584715 1185.27441,289.132472 C1159.27269,253.395799 1114.22202,241.327815 1074.47741,230.681983 C1048.59767,223.754067 1024.14102,217.130897 1008.48713,205.814622 C993.138187,194.620246 979.517271,173.592698 965.103497,151.325845 C942.618822,116.625311 917.186337,77.2723058 874.615894,63.4367886 C837.514147,51.5516527 792.707435,65.651284 752.901835,80.9292707 C727.225393,90.762443 703.012692,99.9861212 682.459341,99.9861212 C661.926319,99.9861212 637.713617,90.762443 612.037176,80.9292707 C572.170587,65.7122335 527.363874,51.5516527 490.323117,63.4367886 C447.752674,77.2723058 422.23887,116.564362 399.774525,151.325845 C385.40141,173.531749 371.780495,194.559297 356.431553,205.753673 C340.716676,217.191846 316.280347,223.754067 290.400608,230.681983 C250.716987,241.327815 205.706977,253.456748 179.6646,289.213738 C153.90684,324.523766 156.265088,370.784372 158.29806,411.559531 C159.741471,438.600754 160.961254,464.07761 154.902996,482.890663 C149.210674,500.322195 133.658434,519.500945 117.150698,539.73615 C90.8440352,572.019024 61,608.649622 61,654.239785 C61,699.768998 90.7627163,736.37928 117.089709,768.723103 C133.597445,788.958308 149.149684,808.076108 154.821677,825.588907 C160.961254,844.442593 159.680482,869.939764 158.29806,896.899722 C156.265088,937.674881 153.90684,983.874538 179.6646,1019.32678 C205.645988,1055.08377 250.716987,1067.13144 290.461598,1077.77727 C316.341337,1084.70519 340.777665,1091.32836 356.431553,1102.64463 C371.780495,1113.83901 385.40141,1134.86656 399.835514,1157.15372 C422.320189,1191.85426 447.752674,1231.18695 490.323117,1245.04278 C527.282555,1256.86697 572.170587,1242.68607 612.037176,1227.52998 C637.713617,1217.75776 661.926319,1208.49345 682.459341,1208.49345 C703.012692,1208.49345 727.225393,1217.71713 752.901835,1227.52998 C781.810703,1238.62278 811.776716,1250 842.047676,1250 C853.493311,1250 864.451032,1248.33405 874.534575,1245.04278 C917.125348,1231.18695 942.618822,1191.91521 965.103497,1157.15372 C979.456282,1134.94782 993.077197,1113.92027 1008.48713,1102.70558 C1024.14102,1091.26741 1048.59767,1084.70519 1074.5384,1077.77727 C1114.22202,1067.13144 1159.2117,1055.08377 1185.27441,1019.32678 C1211.01184,984.016753 1208.65359,937.73583 1206.64095,896.899722 C1205.25853,869.878815 1203.97776,844.381643 1210.097,825.588907 C1215.78933,808.137058 1231.34157,788.958308 1247.8493,768.723103 C1274.15596,736.501179 1304,699.890897 1304,654.239785 C1303.93901,608.710572 1274.15596,572.079973 1247.8493,539.73615" id="Path" fill="url(#linearGradient-2)" opacity="0.15"></path>
                    <path d="M1186.76703,553.491977 C1171.99905,535.329563 1158.08587,518.170094 1152.99346,502.469453 C1147.51912,485.528808 1148.66491,462.643437 1149.90164,438.44512 C1151.70217,401.846762 1153.81188,360.379564 1130.78692,328.558869 C1107.52553,296.482879 1067.22276,285.651078 1031.66684,276.095752 C1008.51457,269.877496 986.635406,263.93277 972.631285,253.775677 C958.899971,243.727996 946.714566,224.854403 933.819862,204.868454 C913.704851,173.722467 890.9527,138.400583 852.868765,125.982307 C819.677178,115.314624 779.592653,127.96996 743.982173,141.682947 C721.011776,150.508859 699.350855,158.787711 680.963626,158.787711 C662.594583,158.787711 640.933663,150.508859 617.963266,141.682947 C582.298224,128.024666 542.213699,115.314624 509.076674,125.982307 C470.992738,138.400583 448.167839,173.667761 428.071015,204.868454 C415.212685,224.799697 403.027281,243.67329 389.295967,253.720971 C375.237284,263.987476 353.376304,269.877496 330.224036,276.095752 C294.722678,285.651078 254.456282,296.537585 231.158516,328.63181 C208.115371,360.324858 210.225083,401.846762 212.0438,438.44512 C213.335089,462.716378 214.426319,485.583514 209.006542,502.469453 C203.914134,518.115388 190.000949,535.329563 175.232966,553.491977 C151.698767,582.467957 125,615.346303 125,656.26644 C125,697.131871 151.626018,729.991982 175.178404,759.022667 C189.946387,777.185081 203.859573,794.344551 208.933793,810.063427 C214.426319,826.985837 213.280527,849.871208 212.0438,874.069524 C210.225083,910.667882 208.115371,952.13508 231.158516,983.955775 C254.401721,1016.05 294.722678,1026.86357 330.278597,1036.41889 C353.430866,1042.63715 375.291845,1048.58187 389.295967,1058.73897 C403.027281,1068.78665 415.212685,1087.66024 428.125577,1107.66443 C448.240587,1138.81041 470.992738,1174.11406 509.076674,1186.55057 C542.140951,1197.16355 582.298224,1184.43527 617.963266,1170.8317 C640.933663,1162.06049 662.594583,1153.74517 680.963626,1153.74517 C699.350855,1153.74517 721.011776,1162.02402 743.982173,1170.8317 C769.84433,1180.7882 796.652219,1191 823.732917,1191 C833.972294,1191 843.775179,1189.5047 852.796016,1186.55057 C890.898139,1174.11406 913.704851,1138.86512 933.819862,1107.66443 C946.660005,1087.73318 958.845409,1068.85959 972.631285,1058.79367 C986.635406,1048.52717 1008.51457,1042.63715 1031.7214,1036.41889 C1067.22276,1026.86357 1107.47097,1016.05 1130.78692,983.955775 C1153.81188,952.262728 1151.70217,910.722588 1149.90164,874.069524 C1148.66491,849.816502 1147.51912,826.931131 1152.99346,810.063427 C1158.08587,794.399257 1171.99905,777.185081 1186.76703,759.022667 C1210.30123,730.101394 1237,697.241283 1237,656.26644 C1236.94544,615.401009 1210.30123,582.522663 1186.76703,553.491977" id="Path" fill="url(#linearGradient-3)" opacity="0.200000003"></path>
                </g>
            </g>
        </g>
    </g>
</svg>

<svg width="712" height="613" xmlns="http://www.w3.org/2000/svg"><defs><linearGradient x1="21.173%" y1="11.498%" x2="49.351%" y2="90.23%" id="a"><stop stop-color="#14C39A" offset="0%"/><stop stop-color="#3BD2FA" offset="25.377%"/><stop stop-color="#F785C4" offset="49.824%"/><stop stop-color="#34D2FB" offset="76.845%"/><stop stop-color="#14C39A" offset="100%"/></linearGradient><linearGradient x1="21.173%" y1="11.846%" x2="49.351%" y2="89.866%" id="b"><stop stop-color="#14C39A" offset="0%"/><stop stop-color="#3BD2FA" offset="25.377%"/><stop stop-color="#F785C4" offset="49.824%"/><stop stop-color="#34D2FB" offset="76.845%"/><stop stop-color="#14C39A" offset="100%"/></linearGradient><linearGradient x1="21.173%" y1="11.594%" x2="49.351%" y2="90.13%" id="c"><stop stop-color="#14C39A" offset="0%"/><stop stop-color="#3BD2FA" offset="25.377%"/><stop stop-color="#F785C4" offset="49.824%"/><stop stop-color="#34D2FB" offset="76.845%"/><stop stop-color="#14C39A" offset="100%"/></linearGradient></defs><g transform="translate(-7 -697)" fill="none" fill-rule="evenodd" opacity=".7"><path d="M1299.519 528.77c-18.075-22.258-35.104-43.286-41.336-62.526-6.7-20.76-5.298-48.804-3.784-78.458 2.203-44.85 4.785-95.665-23.395-134.66-28.47-39.307-77.798-52.58-121.316-64.29-28.336-7.62-55.114-14.905-72.254-27.352-16.806-12.313-31.72-35.442-47.502-59.933-24.62-38.168-52.467-81.453-99.078-96.67C850.23-8.194 801.17 7.315 757.585 24.12c-28.114 10.815-54.625 20.96-77.13 20.96-22.482 0-48.993-10.145-77.107-20.96C559.697 7.382 510.637-8.194 470.079 4.88c-46.611 15.217-74.547 58.435-99.144 96.67-15.738 24.424-30.652 47.553-47.458 59.866-17.206 12.58-43.962 19.799-72.299 27.419-43.45 11.71-92.734 25.05-121.248 64.38-28.203 38.838-25.621 89.72-23.395 134.57 1.58 29.743 2.916 57.765-3.718 78.458-6.232 19.173-23.261 40.268-41.336 62.525C32.677 564.278 0 604.57 0 654.714c0 50.078 32.588 90.346 61.414 125.922 18.075 22.257 35.104 43.285 41.314 62.547 6.723 20.738 5.32 48.783 3.807 78.436-2.226 44.85-4.808 95.665 23.395 134.66 28.447 39.33 77.797 52.58 121.315 64.29 28.336 7.62 55.092 14.906 72.232 27.352 16.806 12.313 31.72 35.442 47.525 59.956 24.619 38.168 52.466 81.43 99.077 96.67 40.469 13.006 89.618-2.592 133.269-19.262 28.114-10.749 54.625-20.939 77.107-20.939 22.505 0 49.016 10.146 77.13 20.939 31.653 12.201 64.464 24.715 97.609 24.715 12.532 0 24.53-1.832 35.57-5.453 46.635-15.24 74.548-58.435 99.168-96.67 15.715-24.425 30.629-47.553 47.502-59.888 17.14-12.582 43.918-19.8 72.321-27.42 43.451-11.71 92.712-24.96 121.249-64.29 28.18-38.838 25.598-89.743 23.395-134.66-1.514-29.72-2.917-57.765 3.784-78.436 6.232-19.195 23.261-40.29 41.336-62.547 28.804-35.442 61.481-75.71 61.481-125.922-.067-50.079-32.677-90.37-61.481-125.945" fill="url(#a)" opacity=".1"/><path d="M1247.85 539.736c-16.508-20.235-32.06-39.353-37.753-56.845-6.12-18.874-4.838-44.372-3.456-71.331 2.013-40.776 4.37-86.975-21.367-122.428-26.001-35.736-71.052-47.804-110.797-58.45-25.88-6.928-50.336-13.551-65.99-24.867-15.349-11.195-28.97-32.222-43.384-54.49-22.484-34.7-47.917-74.053-90.487-87.888-37.102-11.885-81.909 2.214-121.714 17.492-25.677 9.833-49.89 19.057-70.443 19.057-20.533 0-44.745-9.224-70.422-19.057-39.866-15.217-84.673-29.377-121.714-17.492-42.57 13.835-68.084 53.127-90.548 87.889-14.374 22.206-27.995 43.233-43.343 54.428-15.715 11.438-40.152 18-66.031 24.928-39.684 10.646-84.694 22.775-110.736 58.532-25.758 35.31-23.4 81.57-21.367 122.346 1.443 27.04 2.663 52.518-3.395 71.33-5.692 17.432-21.245 36.61-37.752 56.846C90.844 572.02 61 608.65 61 654.24c0 45.529 29.763 82.14 56.09 114.483 16.507 20.235 32.06 39.353 37.732 56.866 6.14 18.854 4.858 44.35 3.476 71.31-2.033 40.776-4.391 86.976 21.367 122.428 25.981 35.757 71.052 47.804 110.797 58.45 25.88 6.928 50.316 13.551 65.97 24.868 15.348 11.194 28.97 32.222 43.404 54.509 22.484 34.7 47.917 74.033 90.487 87.889 36.96 11.824 81.848-2.357 121.714-17.513 25.677-9.772 49.89-19.037 70.422-19.037 20.554 0 44.766 9.224 70.443 19.037 28.909 11.093 58.875 22.47 89.146 22.47 11.445 0 22.403-1.666 32.487-4.957 42.59-13.856 68.084-53.128 90.568-87.89 14.353-22.205 27.974-43.233 43.384-54.447 15.654-11.439 40.11-18 66.051-24.929 39.684-10.646 84.674-22.693 110.736-58.45 25.738-35.31 23.38-81.591 21.367-122.427-1.382-27.021-2.663-52.518 3.456-71.311 5.692-17.452 21.245-36.63 37.752-56.866C1274.156 736.501 1304 699.891 1304 654.24c-.061-45.53-29.844-82.16-56.15-114.504" fill="url(#b)" opacity=".15"/><path d="M1186.767 553.492c-14.768-18.162-28.681-35.322-33.774-51.023-5.474-16.94-4.328-39.826-3.091-64.024 1.8-36.598 3.91-78.065-19.115-109.886-23.261-32.076-63.564-42.908-99.12-52.463-23.152-6.219-45.032-12.163-59.036-22.32-13.731-10.048-25.916-28.922-38.811-48.908-20.115-31.146-42.867-66.467-80.951-78.886-33.192-10.667-73.276 1.988-108.887 15.7-22.97 8.827-44.631 17.106-63.018 17.106-18.37 0-40.03-8.28-63-17.105-35.666-13.658-75.75-26.368-108.887-15.7-38.084 12.418-60.91 47.685-81.006 78.885-12.858 19.932-25.044 38.805-38.775 48.853-14.059 10.266-35.92 16.156-59.072 22.375-35.501 9.555-75.768 20.442-99.065 52.536-23.044 31.693-20.934 73.215-19.115 109.813 1.291 24.271 2.382 47.139-3.037 64.024-5.093 15.646-19.006 32.86-33.774 51.023C151.699 582.468 125 615.346 125 656.266c0 40.866 26.626 73.726 50.178 102.757 14.768 18.162 28.682 35.322 33.756 51.04 5.492 16.923 4.347 39.808 3.11 64.007-1.819 36.598-3.929 78.065 19.115 109.886 23.243 32.094 63.564 42.908 99.12 52.463 23.152 6.218 45.013 12.163 59.017 22.32 13.731 10.048 25.917 28.921 38.83 48.925 20.115 31.146 42.867 66.45 80.95 78.887 33.065 10.613 73.222-2.116 108.887-15.72 22.97-8.77 44.632-17.086 63-17.086 18.388 0 40.049 8.279 63.02 17.087 25.861 9.956 52.67 20.168 79.75 20.168 10.24 0 20.042-1.495 29.063-4.45 38.102-12.436 60.909-47.685 81.024-78.886 12.84-19.93 25.025-38.804 38.811-48.87 14.004-10.267 35.884-16.157 59.09-22.375 35.502-9.555 75.75-20.369 99.066-52.463 23.025-31.693 20.915-73.233 19.115-109.886-1.237-24.253-2.383-47.139 3.091-64.007 5.093-15.664 19.006-32.878 33.774-51.04C1210.301 730.1 1237 697.24 1237 656.266c-.055-40.865-26.699-73.743-50.233-102.774" fill="url(#c)" opacity=".2"/></g></svg>
